src/components/content/Icon/icons/depot.svg

<svg width="24" height="24" viewBox="0 0 24 24" fill="none" xmlns="http://www.w3.org/2000/svg">
<path d="M3 9.65505V21C3 21.2653 2.89464 21.5196 2.70711 21.7072C2.51957 21.8947 2.26522 22 2 22C1.73478 22 1.48043 21.8947 1.29289 21.7072C1.10536 21.5196 1 21.2653 1 21V9.00005C1.00009 8.76124 1.08564 8.53035 1.24118 8.34913C1.39671 8.16792 1.61197 8.04835 1.848 8.01205C1.85953 8.00449 1.87119 7.99716 1.883 7.99005L11.593 2.38505C11.94 2.18405 12.355 2.20805 12.664 2.41105C12.7344 2.43317 12.8022 2.46302 12.866 2.50005L22.392 8.00005C22.53 8.08005 22.642 8.18705 22.724 8.31005C22.895 8.49005 23 8.73305 23 9.00005V21C23 21.2653 22.8946 21.5196 22.7071 21.7072C22.5196 21.8947 22.2652 22 22 22C21.7348 22 21.4804 21.8947 21.2929 21.7072C21.1054 21.5196 21 21.2653 21 21V9.50605L12.13 4.38405L3 9.65505Z" fill="#0B301A"/>
<path d="M9.5 16H6.5C5.67157 16 5 16.6716 5 17.5V20.5C5 21.3284 5.67157 22 6.5 22H9.5C10.3284 22 11 21.3284 11 20.5V17.5C11 16.6716 10.3284 16 9.5 16Z" fill="#6347E3"/>
<path d="M9.5 16H6.5C5.67157 16 5 16.6716 5 17.5V20.5C5 21.3284 5.67157 22 6.5 22H9.5C10.3284 22 11 21.3284 11 20.5V17.5C11 16.6716 10.3284 16 9.5 16Z" fill="#6347E3"/>
<path d="M17.5 16H14.5C13.6716 16 13 16.6716 13 17.5V20.5C13 21.3284 13.6716 22 14.5 22H17.5C18.3284 22 19 21.3284 19 20.5V17.5C19 16.6716 18.3284 16 17.5 16Z" fill="#6347E3"/>
<path d="M17.5 16H14.5C13.6716 16 13 16.6716 13 17.5V20.5C13 21.3284 13.6716 22 14.5 22H17.5C18.3284 22 19 21.3284 19 20.5V17.5C19 16.6716 18.3284 16 17.5 16Z" fill="#6347E3"/>
<path d="M13.5 8H10.5C9.67157 8 9 8.67157 9 9.5V12.5C9 13.3284 9.67157 14 10.5 14H13.5C14.3284 14 15 13.3284 15 12.5V9.5C15 8.67157 14.3284 8 13.5 8Z" fill="#6347E3"/>
<path d="M13.5 8H10.5C9.67157 8 9 8.67157 9 9.5V12.5C9 13.3284 9.67157 14 10.5 14H13.5C14.3284 14 15 13.3284 15 12.5V9.5C15 8.67157 14.3284 8 13.5 8Z" fill="#6347E3"/>
</svg>

<svg xmlns="http://www.w3.org/2000/svg" width="24" height="24" fill="none" viewBox="0 0 24 24"><path fill="#0b301a" d="M3 9.655V21a1 1 0 1 1-2 0V9a1 1 0 0 1 .848-.988l.035-.022 9.71-5.605a1.02 1.02 0 0 1 1.071.026 1 1 0 0 1 .202.089L22.392 8a1 1 0 0 1 .332.31c.171.18.276.423.276.69v12a1 1 0 0 1-2 0V9.506l-8.87-5.122z"/><path fill="#6347e3" d="M9.5 16h-3A1.5 1.5 0 0 0 5 17.5v3A1.5 1.5 0 0 0 6.5 22h3a1.5 1.5 0 0 0 1.5-1.5v-3A1.5 1.5 0 0 0 9.5 16"/><path fill="#6347e3" d="M9.5 16h-3A1.5 1.5 0 0 0 5 17.5v3A1.5 1.5 0 0 0 6.5 22h3a1.5 1.5 0 0 0 1.5-1.5v-3A1.5 1.5 0 0 0 9.5 16M17.5 16h-3a1.5 1.5 0 0 0-1.5 1.5v3a1.5 1.5 0 0 0 1.5 1.5h3a1.5 1.5 0 0 0 1.5-1.5v-3a1.5 1.5 0 0 0-1.5-1.5"/><path fill="#6347e3" d="M17.5 16h-3a1.5 1.5 0 0 0-1.5 1.5v3a1.5 1.5 0 0 0 1.5 1.5h3a1.5 1.5 0 0 0 1.5-1.5v-3a1.5 1.5 0 0 0-1.5-1.5M13.5 8h-3A1.5 1.5 0 0 0 9 9.5v3a1.5 1.5 0 0 0 1.5 1.5h3a1.5 1.5 0 0 0 1.5-1.5v-3A1.5 1.5 0 0 0 13.5 8"/><path fill="#6347e3" d="M13.5 8h-3A1.5 1.5 0 0 0 9 9.5v3a1.5 1.5 0 0 0 1.5 1.5h3a1.5 1.5 0 0 0 1.5-1.5v-3A1.5 1.5 0 0 0 13.5 8"/></svg>
